X: 11631
T: Eilean N'Aran
R: reel
M: 4/4
K: Dmajor
E2 EE G4|F2 GF D4|E2 EE e2 e2|d2 ed B4|d2 ed B A3|
G A3 B A3|F4 ED E2|B2 A2 F2 E2|D4 E4|E6||

